src/images/icons/icon-link.svg

<svg width="40" height="41" viewBox="0 0 40 41" fill="none" xmlns="http://www.w3.org/2000/svg">
<path d="M13.7001 0.356934C14.7001 0.656934 15.1001 1.35693 15.0001 2.45693C15.0001 3.95693 15.0001 5.45693 15.0001 6.95693C15.0001 7.95693 14.3001 8.75693 13.3001 8.75693C12.4001 8.75693 11.6001 8.05693 11.6001 7.05693C11.6001 5.35693 11.6001 3.75693 11.6001 2.05693C11.6001 1.15693 12.1001 0.656934 12.9001 0.356934C13.2001 0.356934 13.4001 0.356934 13.7001 0.356934Z" fill="black"/>
<path d="M0 13.3571C0.4 12.3571 1.1 12.0571 2.1 12.0571C3.6 12.0571 5.1 12.0571 6.6 12.0571C7.9 12.0571 8.7 13.2571 8.2 14.3571C7.9 15.0571 7.4 15.3571 6.7 15.3571C5 15.3571 3.3 15.3571 1.6 15.3571C0.7 15.3571 0.2 14.8571 0 14.0571C0 13.7571 0 13.5571 0 13.3571Z" fill="black"/>
<path d="M40.0001 27.3569C39.6001 28.3569 38.9001 28.7569 37.9001 28.6569C36.4001 28.6569 34.9001 28.6569 33.5001 28.6569C32.3001 28.6569 31.5001 27.7569 31.8001 26.6569C32.0001 25.9569 32.6001 25.3569 33.3001 25.3569C35.0001 25.3569 36.7001 25.3569 38.4001 25.3569C39.3001 25.3569 39.7001 25.9569 40.0001 26.6569C40.0001 26.9569 40.0001 27.1569 40.0001 27.3569Z" fill="black"/>
<path d="M26.3 40.357C25.3 40.057 24.9 39.357 25 38.257C25 36.757 25 35.257 25 33.757C25 32.757 25.7 31.957 26.7 31.957C27.6 31.957 28.4 32.657 28.4 33.757C28.4 35.257 28.4 36.757 28.4 38.157C28.4 39.157 28.1 39.957 27.1 40.257C26.8 40.357 26.6 40.357 26.3 40.357Z" fill="black"/>
<path d="M21.3001 27.257C19.0001 27.257 17.0001 26.557 15.4001 24.957C14.9001 24.457 14.7001 23.857 15.0001 23.157C15.2001 22.457 15.7001 22.157 16.4001 22.057C16.9001 21.957 17.4001 22.257 17.8001 22.557C18.8001 23.457 19.9001 24.057 21.2001 24.057C22.5001 24.057 23.7001 23.557 24.6001 22.557C28.2001 19.057 31.7001 15.457 35.2001 11.957C36.7001 10.457 37.1001 8.45702 36.3001 6.75702C35.4001 4.75702 33.8001 3.45702 31.5001 3.45702C30.1001 3.45702 29.0001 4.05702 28.0001 5.05702C26.1001 6.95702 24.3001 8.75702 22.4001 10.657C21.7001 11.357 20.6001 11.357 19.9001 10.657C19.3001 9.95702 19.3001 9.05702 20.0001 8.35702C21.0001 7.35702 21.9001 6.35702 22.9001 5.45702C23.8001 4.55702 24.7001 3.65702 25.6001 2.75702C29.2001 -0.842983 36.4001 -0.242983 38.8001 4.85702C40.3001 7.95702 39.8001 12.157 37.2001 14.757C33.8001 18.057 30.5001 21.457 27.2001 24.757C25.7001 26.457 23.6001 27.257 21.3001 27.257Z" fill="black"/>
<path d="M18.1999 14.3569C19.9999 14.3569 21.9999 15.0569 23.5999 16.6569C24.0999 17.1569 24.1999 17.7569 23.9999 18.4569C23.7999 19.0569 23.2999 19.4569 22.5999 19.5569C21.9999 19.6569 21.5999 19.4569 21.1999 19.0569C20.3999 18.3569 19.5999 17.7569 18.4999 17.5569C16.7999 17.2569 15.4999 17.8569 14.2999 18.9569C13.2999 19.9569 12.2999 20.9569 11.2999 21.9569C9.09988 24.1569 6.99988 26.3569 4.79988 28.4569C3.99988 29.2569 3.49988 30.1569 3.29988 31.2569C2.99988 33.0569 3.69988 34.5569 4.99988 35.7569C7.09988 37.7569 9.79988 37.6569 11.8999 35.6569C13.4999 34.0569 14.9999 32.5569 16.5999 30.9569C17.0999 30.4569 17.6999 30.2569 18.3999 30.5569C18.9999 30.7569 19.3999 31.2569 19.4999 31.9569C19.5999 32.4569 19.3999 32.8569 19.0999 33.2569C17.3999 34.9569 15.7999 36.7569 13.9999 38.3569C11.4999 40.5569 8.59988 40.8569 5.49988 39.8569C2.59988 38.8569 0.899878 36.7569 0.299878 33.6569C-0.200122 30.7569 0.499878 28.1569 2.69988 25.9569C5.69988 22.9569 8.69988 19.9569 11.6999 16.9569C13.3999 15.2569 15.3999 14.3569 18.1999 14.3569Z" fill="black"/>
<path d="M5 3.65674C5.5 3.65674 5.8 3.85674 6.2 4.15674C7.9 5.85674 9.6 7.45674 11.2 9.15674C11.9 9.85674 11.8 10.8567 11.2 11.5567C10.6 12.1567 9.5 12.1567 8.9 11.5567C7.2 9.85674 5.5 8.15674 3.9 6.45674C3.3 5.95674 3.2 5.35674 3.5 4.65674C3.7 4.05674 4.3 3.65674 5 3.65674Z" fill="black"/>
<path d="M29.9999 28.6567C30.4999 28.6567 30.7999 28.8567 31.1999 29.1567C32.8999 30.8567 34.5999 32.4567 36.1999 34.1567C36.8999 34.8567 36.7999 35.8567 36.1999 36.4567C35.5999 37.0567 34.4999 37.0567 33.8999 36.4567C32.1999 34.7567 30.4999 33.1567 28.8999 31.4567C28.3999 30.9567 28.2999 30.2567 28.5999 29.6567C28.7999 29.0567 29.2999 28.7567 29.9999 28.6567Z" fill="black"/>
</svg>

<svg xmlns="http://www.w3.org/2000/svg" width="40" height="41" fill="none"><path fill="#000" d="M13.7.36c1 .3 1.4 1 1.3 2.1v4.5c0 1-.7 1.8-1.7 1.8-.9 0-1.7-.7-1.7-1.7v-5c0-.9.5-1.4 1.3-1.7h.8ZM0 13.36c.4-1 1.1-1.3 2.1-1.3h4.5c1.3 0 2.1 1.2 1.6 2.3-.3.7-.8 1-1.5 1H1.6c-.9 0-1.4-.5-1.6-1.3v-.7ZM40 27.36c-.4 1-1.1 1.4-2.1 1.3h-4.4c-1.2 0-2-.9-1.7-2 .2-.7.8-1.3 1.5-1.3h5.1c.9 0 1.3.6 1.6 1.3v.7ZM26.3 40.36c-1-.3-1.4-1-1.3-2.1v-4.5c0-1 .7-1.8 1.7-1.8.9 0 1.7.7 1.7 1.8v4.4c0 1-.3 1.8-1.3 2.1-.3.1-.5.1-.8.1ZM21.3 27.26c-2.3 0-4.3-.7-5.9-2.3-.5-.5-.7-1.1-.4-1.8.2-.7.7-1 1.4-1.1.5-.1 1 .2 1.4.5 1 .9 2.1 1.5 3.4 1.5 1.3 0 2.5-.5 3.4-1.5 3.6-3.5 7.1-7.1 10.6-10.6 1.5-1.5 1.9-3.5 1.1-5.2-.9-2-2.5-3.3-4.8-3.3-1.4 0-2.5.6-3.5 1.6l-5.6 5.6c-.7.7-1.8.7-2.5 0-.6-.7-.6-1.6.1-2.3 1-1 1.9-2 2.9-2.9l2.7-2.7c3.6-3.6 10.8-3 13.2 2.1 1.5 3.1 1 7.3-1.6 9.9-3.4 3.3-6.7 6.7-10 10a7.64 7.64 0 0 1-5.9 2.5Z"/><path fill="#000" d="M18.2 14.36c1.8 0 3.8.7 5.4 2.3.5.5.6 1.1.4 1.8-.2.6-.7 1-1.4 1.1-.6.1-1-.1-1.4-.5-.8-.7-1.6-1.3-2.7-1.5-1.7-.3-3 .3-4.2 1.4l-3 3c-2.2 2.2-4.3 4.4-6.5 6.5a4.83 4.83 0 0 0 .2 7.3c2.1 2 4.8 1.9 6.9-.1l4.7-4.7c.5-.5 1.1-.7 1.8-.4.6.2 1 .7 1.1 1.4.1.5-.1.9-.4 1.3-1.7 1.7-3.3 3.5-5.1 5.1-2.5 2.2-5.4 2.5-8.5 1.5-2.9-1-4.6-3.1-5.2-6.2-.5-2.9.2-5.5 2.4-7.7l9-9c1.7-1.7 3.7-2.6 6.5-2.6ZM5 3.66c.5 0 .8.2 1.2.5 1.7 1.7 3.4 3.3 5 5 .7.7.6 1.7 0 2.4-.6.6-1.7.6-2.3 0-1.7-1.7-3.4-3.4-5-5.1-.6-.5-.7-1.1-.4-1.8.2-.6.8-1 1.5-1ZM30 28.66c.5 0 .8.2 1.2.5 1.7 1.7 3.4 3.3 5 5 .7.7.6 1.7 0 2.3-.6.6-1.7.6-2.3 0-1.7-1.7-3.4-3.3-5-5-.5-.5-.6-1.2-.3-1.8.2-.6.7-.9 1.4-1Z"/></svg>
